startshape Dedo

rule Baba {
    CIRCLE { x -100 y -50 h 150 sat 0.5 b 0.7 }
    SQUARE { x -100 y -50 a 0.5 }
}

rule Dedo {
    Baba {x 255 y 255 s 2 }
    TRIANGLE { x 55 y 65 s 2 5 }
}
